!!!COM:	Rachmaninoff, Sergei
!!!CDT:	1873/04/01–1943/03/28
!!!OTL@RU:	Svete tikhiy
!!!OTL@EN:	O Gladsome Light
!!!OPS:	Op. 37
!!!ONM:	No. 4
**kern	**kern	**kern	**kern	**kern	**kern	**kern	**kern	**kern	**kern
*part10	*part9	*part8	*part7	*part6	*part5	*part4	*part3	*part2	*part1
*staff10	*staff9	*staff8	*staff7	*staff6	*staff5	*staff4	*staff3	*staff2	*staff1
*I"Bass 3	*I"Bass 2	*I"Bass 1	*I"Tenor 2	*I"Tenor 1	*I"Tenor Solo	*I"Alto 2	*I"Alto 1	*I"Soprano 2	*I"Soprano 1
*I'B 3	*I'B 2	*I'B 1	*I'T 2	*I'T 1	*I'T	*I'A 2	*I'A 1	*I'S 2	*I'S 1
*clefF4	*clefF4	*clefF4	*clefGv2	*clefGv2	*clefGv2	*clefG2	*clefG2	*clefG2	*clefG2
*k[b-e-a-]	*k[b-e-a-]	*k[b-e-a-]	*k[b-e-a-]	*k[b-e-a-]	*k[b-e-a-]	*k[b-e-a-]	*k[b-e-a-]	*k[b-e-a-]	*k[b-e-a-]
*c:	*c:	*c:	*c:	*c:	*c:	*c:	*c:	*c:	*c:
=1	=1	=1	=1	=1	=1	=1	=1	=1	=1
2%5r	2%5r	2%5r	2%5r	2.e-	2%5r	2%5r	2%5r	2%5r	2%5r
.	.	.	.	4d	.	.	.	.	.
.	.	.	.	2c	.	.	.	.	.
.	.	.	.	2B-	.	.	.	.	.
.	.	.	.	2c	.	.	.	.	.
=2	=2	=2	=2	=2	=2	=2	=2	=2	=2
2%5r	2%5r	2%5r	2%5r	4d	2%5r	2%5r	2%5r	2%5r	2%5r
.	.	.	.	2e-	.	.	.	.	.
.	.	.	.	4d	.	.	.	.	.
.	.	.	.	2c	.	.	.	.	.
.	.	.	.	2B-	.	.	.	.	.
.	.	.	.	4c	.	.	.	.	.
.	.	.	.	4d	.	.	.	.	.
=3	=3	=3	=3	=3	=3	=3	=3	=3	=3
0r	0r	0r	0r	2e-	0r	2g	0r	2cc	0r
.	.	.	.	2.d	.	1f	.	1b-	.
.	.	.	.	4d	.	.	.	.	.
.	.	.	.	4c	.	[2g	.	[2cc	.
.	.	.	.	4d	.	.	.	.	.
=4	=4	=4	=4	=4	=4	=4	=4	=4	=4
!!pagebreak:original
1%3r	1%3r	1%3r	1%3r	4e-	1%3r	2g]	1%3r	2cc]	1r
.	.	.	.	2e-	.	.	.	.	.
.	.	.	.	.	.	2g	.	2cc	.
.	.	.	.	4e-	.	.	.	.	.
.	.	.	.	2.d	.	1f	.	1b-	1r
.	.	.	.	4d	.	.	.	.	.
.	.	.	.	2.c	.	2.g	.	2.cc	2r
.	.	.	.	.	.	.	.	.	4r
.	.	.	.	4d	.	4f	.	4b-	4dd
=5	=5	=5	=5	=5	=5	=5	=5	=5	=5
1r	1r	1r	1r	2e-	1r	2g	1r	4cc	2ee-
.	.	.	.	.	.	.	.	4b-	.
.	.	.	.	4d	.	4f	.	4g	4dd
.	.	.	.	4d	.	4f	.	4b-	4dd
=6	=6	=6	=6	=6	=6	=6	=6	=6	=6
1.r	1.r	1.r	1.r	2c	1.r	4e-	1.r	4g	2cc
.	.	.	.	.	.	4f	.	4a-	.
.	.	.	.	2B-	.	4e-	.	4g	2b-
.	.	.	.	.	.	4d	.	4f	.
.	.	.	.	4c	.	4e-	.	4g	4cc
.	.	.	.	4d	.	4f	.	4b-	4ee-
=7	=7	=7	=7	=7	=7	=7	=7	=7	=7
!!pagebreak:original
1.r	1.r	1.r	1.r	4e-	1.r	4g	1.r	4cc	4ee-
.	.	.	.	4d	.	4f	.	4b-	4dd
.	.	.	.	2e-	.	2g	.	4cc	2ee-
.	.	.	.	.	.	.	.	4b-	.
.	.	.	.	4d	.	4f	.	4g	4dd
.	.	.	.	4d	.	4f	.	4b-	4dd
=8	=8	=8	=8	=8	=8	=8	=8	=8	=8
1.r	1.r	1.r	1.r	2.c	1.r	4e-	1r	4g	2.cc
.	.	.	.	.	.	4f	.	4a-	.
.	.	.	.	.	.	4e-	.	4g	.
.	.	.	.	4d	.	4d	.	4f	4b-
.	.	.	.	4c	.	4e-	4r	4g	4cc
.	.	.	.	4B-	.	4f	4b-	4b-	4dd
=9	=9	=9	=9	=9	=9	=9	=9	=9	=9
1.r	1.r	1.r	4e-	4e-	1.r	2g	2cc	2ee-	2ee-
.	.	.	4d	4d	.	.	.	.	.
.	.	.	4e-	4e-	.	4g	4b-	4dd	4dd
.	.	.	4d	4d	.	4f	4b-	4dd	4dd
.	.	.	4e-	4e-	.	4g	4b-	4dd	4dd
.	.	.	4d	4d	.	4f	4b-	4dd	4dd
=10	=10	=10	=10	=10	=10	=10	=10	=10	=10
!!pagebreak:original
1EE-	1.r	1.r	4e-	4e-	1.r	2a-	2a-	2cc	2cc
.	.	.	4d	4d	.	.	.	.	.
.	.	.	4e-	4e-	.	4f	4f	2b-	2b-
.	.	.	4d	4d	.	4g	4g	.	.
2EE-	.	.	4e-	4e-	.	4a-	4a-	4cc	4cc
.	.	.	4f	4d	.	4b-	4b-	4dd	4dd
=11	=11	=11	=11	=11	=11	=11	=11	=11	=11
[1EE-	1r	4A-	2e-	2e-	1r	2cc	2cc	2ee-	2ee-
.	.	4G	.	.	.	.	.	.	.
.	.	4A-	4f	4f	.	4b-	4b-	4dd	4dd
.	.	4G	4g	4g	.	4b-	4b-	4dd	4dd
=12	=12	=12	=12	=12	=12	=12	=12	=12	=12
2EE-]	1r	4A-	4.e-	4.e-	1r	4.a-	4.a-	4.cc	4.cc
.	.	4G	.	.	.	.	.	.	.
.	.	.	8d	8d	.	8f	8f	8b-	8b-
[2EE-	.	4A-	4e-	4e-	.	4a-	4a-	4cc	4cc
.	.	4G	8fL	8fL	.	4b-	4b-	4dd	4dd
.	.	.	8dJ	8dJ	.	.	.	.	.
=13	=13	=13	=13	=13	=13	=13	=13	=13	=13
1EE-]	4C-X	[1A-	2.e-	2.e-	1r	1a-	1a-	2.ee-	2.ee-
.	4BB-	.	.	.	.	.	.	.	.
.	4C-	.	.	.	.	.	.	.	.
.	4BB-	.	4d	4d	.	.	.	4dd	4dd
=14	=14	=14	=14	=14	=14	=14	=14	=14	=14
!!pagebreak:original
4EE-	2C-X	2A-]	[1e-	[1e-	1r	2a-	2a-	[1ee-	[1ee-
4DD	.	.	.	.	.	.	.	.	.
4EE-	[2C-	4G-X	.	.	.	2b-	2b-	.	.
4DD	.	4F	.	.	.	.	.	.	.
=15	=15	=15	=15	=15	=15	=15	=15	=15	=15
4EE-	2.C-]	2.G-X	2.e-]	2.e-]	1r	2cc-X	2cc-X	2.ee-]	2.ee-]
4DD	.	.	.	.	.	.	.	.	.
4EE-	.	.	.	.	.	2r	2r	.	.
4FF	4r	4r	4r	4r	.	.	.	4r	4r
=16	=16	=16	=16	=16	=16	=16	=16	=16	=16
2GG-X	2E-	2E-	2B-	2B-	1r	2e-	2g-X	1r	1r
2AA-	2E-	2E-	2c-X	2c-X	.	2e-	2f	.	.
=17	=17	=17	=17	=17	=17	=17	=17	=17	=17
2BB-	1E-	1E-	2B-	2B-	1r	1e-	2g-X	1r	1r
4C-X	.	.	2A-	2A-	.	.	2f	.	.
4D-X	.	.	.	.	.	.	.	.	.
=18	=18	=18	=18	=18	=18	=18	=18	=18	=18
2E-	2E-	2E-	2B-	2B-	1r	1e-	2g-X	1r	1r
2r	2r	2r	4A-	4c-X	.	.	[2a-	.	.
.	.	.	4B-	8d-XL	.	.	.	.	.
.	.	.	.	8e-J	.	.	.	.	.
=19	=19	=19	=19	=19	=19	=19	=19	=19	=19
!!pagebreak:original
1r	1r	1r	4c-X	4f-X	4r	[1en	4a-]	[1g#X	[1bn
.	.	.	4r	4r	4d#X	.	4r	.	.
.	.	.	2r	2r	[2en	.	2r	.	.
=20	=20	=20	=20	=20	=20	=20	=20	=20	=20
1r	1r	1r	1r	1r	4e]	2e]	1r	2g#]	2b]
.	.	.	.	.	4d#X	.	.	.	.
.	.	.	.	.	4c#X	2en	.	2g#X	2bn
.	.	.	.	.	4d#	.	.	.	.
=21	=21	=21	=21	=21	=21	=21	=21	=21	=21
1.r	1.r	1.r	1.r	1.r	2en	1en	1.r	1g#X	1bn
.	.	.	.	.	2d#X	.	.	.	.
.	.	.	.	.	4c#X	[2e	.	[2g#	[2cc#X
.	.	.	.	.	4d#	.	.	.	.
=22	=22	=22	=22	=22	=22	=22	=22	=22	=22
1r	1r	1r	1r	1r	4en	2e]	1r	2g#]	2cc#]
.	.	.	.	.	4d	.	.	.	.
.	.	.	.	.	[2e	2en	.	2g#X	2bn
=23	=23	=23	=23	=23	=23	=23	=23	=23	=23
1r	1r	1r	1r	1r	4e-	2en	1r	2g#X	2bn
.	.	.	.	.	4d#X	.	.	.	.
.	.	.	.	.	4d#	2d#X	.	2g#	2b
.	.	.	.	.	4d#	.	.	.	.
=24	=24	=24	=24	=24	=24	=24	=24	=24	=24
1r	1r	1r	1r	1r	2c#X	2c#X	2en	1g#X	1g#X
.	.	.	.	.	2Bn	2Bn	2d#X	.	.
=25	=25	=25	=25	=25	=25	=25	=25	=25	=25
!!pagebreak:original
2r	1r	1r	2r	2r	2c#X	2A#X	2c#X	2g#X	2g#X
2AA-	.	.	2E- 2A-	4e-	[2d#X	2Bn	2Bn	4e-	2a-
.	.	.	.	4f	.	.	.	4f	.
=26	=26	=26	=26	=26	=26	=26	=26	=26	=26
2EE-	4r	4r	2B- 2e-	2g	4d#]	4B-	4B-	2g	2b-
.	4E-	4E-	.	.	2r	4e-	4e-	.	.
2AA-	2E-	2E-	2A- 2c	2f	.	2e-	2e-	2a-	2cc
.	.	.	.	.	4r	.	.	.	.
2GG	4D	4D	2G 2B-	2e-	1r	4d	4d	2g	2b-
.	4D	4D	.	.	.	4d	4d	.	.
2FF	4C	4C	2F	4A- 4c	.	4c	4c	2f	2a-
.	4D	4D	.	4B- 4d	.	4d	4d	.	.
=27	=27	=27	=27	=27	=27	=27	=27	=27	=27
2EE-	4E-	4E-	2B-	2e- 2g	0r	4e-	4e-	2g	2b-
.	4E-	4E-	.	.	.	4e-	4e-	.	.
2AA-	2E-	2E-	2A-	2d 2f	.	2e-	2e-	2a-	2cc
2GG	4D	4D	2G	2B- 2e-	.	4d	4d	2g	2b-
.	4D	4D	.	.	.	4d	4d	.	.
2FF	4C	4C	2F	4A- 4c	.	4c	4c	2f	2a-
.	4D	4D	.	4B- 4d	.	4d	4d	.	.
=28	=28	=28	=28	=28	=28	=28	=28	=28	=28
[1EE-	[1BB-	[1E-	4B-	4B-	1.r	2g	2b-	2ee-	2ee-
.	.	.	4c	4c	.	.	.	.	.
.	.	.	4A-	4A-	.	2f	2b-	2dd	2dd
.	.	.	4B-	4B-	.	.	.	.	.
4EE-]	4BB-]	4E-]	4G	4G	.	4e-	4g	4cc	4cc
8EE-	8BB-	8E-	4A-	4A-	.	4f	4b-	4dd	4dd
8EE-	8BB-	8E-	.	.	.	.	.	.	.
=29	=29	=29	=29	=29	=29	=29	=29	=29	=29
!!pagebreak:original
2EE-	2BB-	2E-	4G	4G	4%5r	2g	2b-	2ee-	2ee-
.	.	.	4c	4c	.	.	.	.	.
2EE-	2BB-	2E-	4F	4F	.	4f	4b-	4dd	4dd
.	.	.	4B-	4B-	.	4g	4b-	4dd	4dd
8EE-	8BB-	8F	4G	4G	.	4f	4b-	4dd	4dd
8EE-	8BB-	8F	.	.	.	.	.	.	.
=30	=30	=30	=30	=30	=30	=30	=30	=30	=30
2EE-	2BB-	2E-	4E-	4E-	1.r	2e-	2g	2cc	2cc
.	.	.	4G	4G	.	.	.	.	.
2EE-	2BB-	2F	4F	4F	.	2d	2f	2b-	2b-
.	.	.	4A-	4A-	.	.	.	.	.
[2EE-	[2BB-	4G	4G	4G	.	4e-	4g	4cc	4cc
.	.	4F	4A-	4A-	.	4f	4a-	4dd	4dd
=31	=31	=31	=31	=31	=31	=31	=31	=31	=31
2.EE-_	2.BB-_	[2.E-	2B-	4B-	2.r	4g	4g	2ee-	2ee-
.	.	.	.	4G	.	4e-	4e-	.	.
.	.	.	4B-	4A-	.	4f	4f	4dd	4dd
=32	=32	=32	=32	=32	=32	=32	=32	=32	=32
4EE-]	4BB-]	1.E-]	1B-	4B-	1.r	1g	1g	2ee-	2ee-
4r	4r	.	.	4c	.	.	.	.	.
4r	4r	.	.	4d	.	.	.	4dd	4dd
4r	4r	.	.	4e-	.	.	.	4dd	4dd
4r	4r	.	2Bn	4f	.	[2a-	[2a-	4dd	4dd
4r	4r	.	.	4g	.	.	.	4dd	4dd
=33	=33	=33	=33	=33	=33	=33	=33	=33	=33
!!pagebreak:original
1r	1r	2E-	4c	2a-	1r	4a-]	4a-]	2cc	2cc
.	.	.	4d	.	.	4f	4f	.	.
.	.	2r	4e-	4g	.	4g	4g	2b-	2b-
.	.	.	8fL	4r	.	8a-L	8a-L	.	.
.	.	.	8gJ	.	.	8b-J	8b-J	.	.
=34	=34	=34	=34	=34	=34	=34	=34	=34	=34
1r;	1r;	1r;	4a-	1r;	1r;	2a-;	2a-;	2cc;	2cc;
.	.	.	4r	.	.	.	.	.	.
.	.	.	2r;	.	.	2r	2r	2r	2r
=35	=35	=35	=35	=35	=35	=35	=35	=35	=35
2A-	2A-	2A-	2c	2e-	0r	2a-	2a-	2cc	2cc
4G	4G	4G	2c	2d	.	2a-	2a-	2cc	2dd
4F	4F	4F	.	.	.	.	.	.	.
2.C	2.C	2.C	2.G	2.c	.	2.e-	2.g	2.cc	2.ee-
4BB-	4BB-	4D	4G	4d	.	4g	4g	4dd	4dd
=36	=36	=36	=36	=36	=36	=36	=36	=36	=36
1FF	1FF	[1D	1A-	1c	0r	[1d	1a-	1cc	1cc
1GG	1GG	2D]	2B-	1B-	.	2d]	2g	1b-	1b-
.	.	2F	2F	.	.	2f	2f	.	.
=37	=37	=37	=37	=37	=37	=37	=37	=37	=37
0AA-	0AA-	2.E-	2.E-	[0c	0r	2.e-	2.e-	0cc	0cc
.	.	4G	4G	.	.	4g	4g	.	.
.	.	4F	4F	.	.	4f	4f	.	.
.	.	4E-	4E-	.	.	4e-	4e-	.	.
.	.	2D	2F	.	.	2f	2f	.	.
=38	=38	=38	=38	=38	=38	=38	=38	=38	=38
1CC;	1GG;	1C;	1G;	1c;]	1r;	1g;	1g;	1cc;	1cc;
==	==	==	==	==	==	==	==	==	==
*-	*-	*-	*-	*-	*-	*-	*-	*-	*-
